packages/icons/raw/imported/GenericBet.svg

<svg width="32" height="32" viewBox="0 0 32 32" fill="none" xmlns="http://www.w3.org/2000/svg">
<path d="M23.0214 5.32754L23.0639 4.82934L23.0214 5.32754ZM9.00114 5.29544L9.05344 5.79269L9.00114 5.29544ZM7.11293 7.17071L7.60934 7.23052L7.11293 7.17071ZM7.23339 27.5227L6.7391 27.5981H6.7391L7.23339 27.5227ZM25.0067 7.31948L24.5086 7.36341V7.36341L25.0067 7.31948ZM24.9266 27.5117L24.4312 27.444V27.444L24.9266 27.5117ZM24.309 27.7438L24.6353 27.365L24.309 27.7438ZM22.6301 26.2978L22.9564 25.9189L22.6301 26.2978ZM21.679 26.2667L21.9799 26.666L21.9799 26.666L21.679 26.2667ZM19.5817 27.8472L19.2808 27.4479L19.2808 27.4479L19.5817 27.8472ZM18.6692 27.8472L18.9702 27.4479L18.9702 27.4479L18.6692 27.8472ZM16.5402 26.2427L16.2393 26.6421L16.2393 26.6421L16.5402 26.2427ZM15.6277 26.2427L15.9287 26.6421L15.9287 26.6421L15.6277 26.2427ZM13.4987 27.8472L13.1978 27.4479L13.1978 27.4479L13.4987 27.8472ZM12.5863 27.8472L12.8872 27.4479L12.8872 27.4479L12.5863 27.8472ZM10.489 26.2667L10.188 26.666H10.188L10.489 26.2667ZM9.53788 26.2978L9.86418 26.6766H9.86418L9.53788 26.2978ZM7.85133 27.7503L8.17763 28.1292H8.17763L7.85133 27.7503ZM10.001 10.1184C9.72485 10.1184 9.50099 10.3423 9.50099 10.6184C9.50099 10.8946 9.72485 11.1184 10.001 11.1184V10.1184ZM15.7038 11.1184C15.9799 11.1184 16.2038 10.8946 16.2038 10.6184C16.2038 10.3423 15.9799 10.1184 15.7038 10.1184V11.1184ZM10.001 14.7026C9.72485 14.7026 9.50099 14.9264 9.50099 15.2026C9.50099 15.4787 9.72485 15.7026 10.001 15.7026V14.7026ZM22.167 15.7026C22.4431 15.7026 22.667 15.4787 22.667 15.2026C22.667 14.9264 22.4431 14.7026 22.167 14.7026V15.7026ZM10.001 19.2867C9.72485 19.2867 9.50099 19.5106 9.50099 19.7867C9.50099 20.0629 9.72485 20.2867 10.001 20.2867V19.2867ZM22.167 20.2867C22.4431 20.2867 22.667 20.0629 22.667 19.7867C22.667 19.5106 22.4431 19.2867 22.167 19.2867V20.2867ZM23.0639 4.82934C19.5574 4.53079 13.8479 4.2829 8.94884 4.79818L9.05344 5.79269C13.8616 5.28697 19.4995 5.52948 22.979 5.82574L23.0639 4.82934ZM6.61652 7.1109C6.04929 11.819 5.52111 19.6044 6.7391 27.5981L7.72769 27.4474C6.52875 19.5788 7.04758 11.8932 7.60934 7.23052L6.61652 7.1109ZM24.5086 7.36341C24.9585 12.4632 25.3751 20.5382 24.4312 27.444L25.422 27.5794C26.3815 20.5595 25.9562 12.394 25.5048 7.27555L24.5086 7.36341ZM24.6353 27.365L22.9564 25.9189L22.3038 26.6766L23.9828 28.1227L24.6353 27.365ZM21.3781 25.8674L19.2808 27.4479L19.8826 28.2465L21.9799 26.666L21.3781 25.8674ZM18.9702 27.4479L16.8411 25.8434L16.2393 26.6421L18.3683 28.2465L18.9702 27.4479ZM15.3268 25.8434L13.1978 27.4479L13.7996 28.2465L15.9287 26.6421L15.3268 25.8434ZM12.8872 27.4479L10.7899 25.8673L10.188 26.666L12.2853 28.2465L12.8872 27.4479ZM9.21159 25.9189L7.52504 27.3715L8.17763 28.1292L9.86418 26.6766L9.21159 25.9189ZM10.7899 25.8673C10.3168 25.5109 9.66033 25.5324 9.21159 25.9189L9.86418 26.6766C9.95661 26.597 10.0909 26.5927 10.188 26.666L10.7899 25.8673ZM13.1978 27.4479C13.1056 27.5174 12.9794 27.5174 12.8872 27.4479L12.2853 28.2465C12.7338 28.5845 13.3511 28.5845 13.7996 28.2465L13.1978 27.4479ZM16.8411 25.8434C16.3926 25.5054 15.7753 25.5054 15.3268 25.8434L15.9287 26.6421C16.0209 26.5726 16.1471 26.5726 16.2393 26.6421L16.8411 25.8434ZM19.2808 27.4479C19.1886 27.5174 19.0624 27.5174 18.9702 27.4479L18.3683 28.2465C18.8168 28.5845 19.4341 28.5845 19.8826 28.2465L19.2808 27.4479ZM22.9564 25.9189C22.5076 25.5324 21.8511 25.5109 21.3781 25.8674L21.9799 26.666C22.0771 26.5927 22.2113 26.597 22.3038 26.6766L22.9564 25.9189ZM24.4312 27.444C24.445 27.3428 24.5654 27.3047 24.6353 27.365L23.9828 28.1227C24.5055 28.5729 25.327 28.2743 25.422 27.5794L24.4312 27.444ZM6.7391 27.5981C6.8436 28.284 7.65766 28.577 8.17763 28.1292L7.52504 27.3715C7.59547 27.3108 7.71278 27.3496 7.72769 27.4474L6.7391 27.5981ZM8.94884 4.79818C7.72116 4.92731 6.76371 5.88924 6.61652 7.1109L7.60934 7.23052C7.70177 6.46336 8.29819 5.87213 9.05344 5.79269L8.94884 4.79818ZM22.979 5.82574C23.7933 5.89506 24.4358 6.53798 24.5086 7.36341L25.5048 7.27555C25.3898 5.97251 24.3686 4.94043 23.0639 4.82934L22.979 5.82574ZM10.001 11.1184H15.7038V10.1184H10.001V11.1184ZM10.001 15.7026H22.167V14.7026H10.001V15.7026ZM10.001 20.2867H22.167V19.2867H10.001V20.2867Z" fill="black"/>
</svg>

<svg width="32" height="32" fill="none" xmlns="http://www.w3.org/2000/svg"><path d="m23.021 5.328.043-.499-.043.499Zm-14.02-.033.052.498-.052-.498ZM7.113 7.171l.496.06-.496-.06Zm.12 20.352-.494.075.494-.075ZM25.007 7.319l-.498.044.498-.044Zm-.08 20.193-.496-.068.496.068Zm-.618.232.326-.379-.326.379Zm-1.679-1.446.326-.38-.326.38Zm-.951-.031.3.399-.3-.4Zm-2.097 1.58-.301-.4.3.4Zm-.913 0 .301-.4-.3.4Zm-2.129-1.604-.3.4.3-.4Zm-.912 0 .3.4-.3-.4Zm-2.13 1.604-.3-.4.3.4Zm-.912 0 .301-.4-.3.4Zm-2.097-1.58-.301.399.301-.4Zm-.951.03.326.38-.326-.38ZM7.85 27.75l.327.38-.327-.38Zm2.15-17.632a.5.5 0 0 0 0 1v-1Zm5.703 1a.5.5 0 1 0 0-1v1ZM10 14.703a.5.5 0 1 0 0 1v-1Zm12.166 1a.5.5 0 0 0 0-1v1Zm-12.166 3.584a.5.5 0 0 0 0 1v-1Zm12.166 1a.5.5 0 1 0 0-1v1Zm.897-15.458c-3.507-.298-9.216-.546-14.115-.03l.104.994c4.809-.506 10.447-.264 13.926.033l.085-.997ZM6.617 7.111c-.568 4.708-1.096 12.493.122 20.487l.989-.15c-1.2-7.87-.68-15.555-.119-20.217l-.992-.12Zm17.892.252c.45 5.1.866 13.175-.078 20.081l.991.135c.96-7.02.534-15.185.083-20.303l-.996.087Zm.126 20.002-1.679-1.446-.652.758 1.679 1.446.652-.758Zm-3.257-1.498-2.097 1.58.602.8 2.097-1.581-.602-.799Zm-2.408 1.58-2.129-1.604-.602.8 2.13 1.604.601-.8Zm-3.643-1.604-2.13 1.605.603.799 2.129-1.605-.602-.799Zm-2.44 1.605-2.097-1.58-.602.798 2.097 1.58.602-.798Zm-3.675-1.53-1.687 1.454.653.757 1.686-1.452-.652-.758Zm1.578-.05a1.258 1.258 0 0 0-1.578.05l.652.759a.257.257 0 0 1 .324-.011l.602-.799Zm2.408 1.58a.257.257 0 0 1-.31 0l-.603.799a1.257 1.257 0 0 0 1.515 0l-.602-.8Zm3.643-1.605a1.257 1.257 0 0 0-1.514 0l.602.8a.257.257 0 0 1 .31 0l.602-.8Zm2.44 1.605a.257.257 0 0 1-.31 0l-.603.799a1.257 1.257 0 0 0 1.515 0l-.602-.8Zm3.675-1.53a1.258 1.258 0 0 0-1.578-.05l.602.798a.258.258 0 0 1 .324.01l.652-.757Zm1.475 1.526a.125.125 0 0 1 .204-.079l-.652.758a.875.875 0 0 0 1.439-.544l-.99-.135Zm-17.692.154a.876.876 0 0 0 1.439.531l-.653-.758a.124.124 0 0 1 .203.076l-.989.151Zm2.21-22.8a2.628 2.628 0 0 0-2.332 2.313l.992.12a1.628 1.628 0 0 1 1.444-1.438l-.104-.995Zm14.03 1.028a1.68 1.68 0 0 1 1.53 1.537l.996-.087a2.68 2.68 0 0 0-2.441-2.447l-.085.997Zm-12.978 5.292h5.703v-1H10v1Zm0 4.585h12.166v-1H10.001v1Zm0 4.584h12.166v-1H10.001v1Z" fill="#000"/></svg>
